local/share/icons/dracula-icons-main/16/places/folder-txt.svg

<?xml version="1.0" encoding="UTF-8"?>
<svg xmlns="http://www.w3.org/2000/svg" xmlns:xlink="http://www.w3.org/1999/xlink" width="16" height="16" viewBox="0 0 16 16">
<path fill-rule="nonzero" fill="rgb(100%, 100%, 100%)" fill-opacity="1" d="M 4 1 C 2.890625 1 2 1.890625 2 3 L 2 13 C 2 14.109375 2.890625 15 4 15 L 12 15 C 13.109375 15 14 14.109375 14 13 L 14 5 L 10 1 Z M 4 3 L 9.171875 3 L 12 5.828125 L 12 13 L 4 13 Z M 4 3 "/>
</svg>

<svg width="16" height="16" version="1.1" viewBox="0 0 16 16" xmlns="http://www.w3.org/2000/svg">
 <defs>
  <style id="current-color-scheme" type="text/css">.ColorScheme-Text { color:#FFFFFF; } .ColorScheme-Highlight { color:#5294e2; }</style>
 </defs>
 <path style="fill:currentColor" class="ColorScheme-Text" d="m4 1c-1.108 0-2 0.892-2 2v10c0 1.108 0.892 2 2 2h8c1.108 0 2-0.892 2-2v-8l-4-4h-6zm0 2h5.1719l2.8281 2.8281v7.1719h-8v-10z"/>
</svg>
